src/assets/text/TextURL.svg

<svg width="20" height="20" viewBox="0 0 20 20" fill="none" xmlns="http://www.w3.org/2000/svg">
<path fill-rule="evenodd" clip-rule="evenodd" d="M2.66667 1.5C1.19391 1.5 0 2.69391 0 4.16667V15.8333C0 17.3061 1.19391 18.5 2.66667 18.5H17.3333C18.8061 18.5 20 17.3061 20 15.8333V4.16667C20 2.69391 18.8061 1.5 17.3333 1.5H2.66667ZM2 4.16667C2 3.79848 2.29848 3.5 2.66667 3.5H17.3333C17.7015 3.5 18 3.79848 18 4.16667V15.8333C18 16.2015 17.7015 16.5 17.3333 16.5H2.66667C2.29848 16.5 2 16.2015 2 15.8333V4.16667ZM4 6.5C4.55229 6.5 5 6.05229 5 5.5C5 4.94772 4.55229 4.5 4 4.5C3.44772 4.5 3 4.94772 3 5.5C3 6.05229 3.44772 6.5 4 6.5ZM7 6.5C7.55229 6.5 8 6.05229 8 5.5C8 4.94772 7.55229 4.5 7 4.5C6.44772 4.5 6 4.94772 6 5.5C6 6.05229 6.44772 6.5 7 6.5ZM11 5.5C11 6.05229 10.5523 6.5 10 6.5C9.44772 6.5 9 6.05229 9 5.5C9 4.94772 9.44772 4.5 10 4.5C10.5523 4.5 11 4.94772 11 5.5Z" fill="#333333"/>
</svg>

<svg xmlns="http://www.w3.org/2000/svg" width="20" height="20" fill="none"><path fill="#333" fill-rule="evenodd" d="M2.667 1.5A2.667 2.667 0 0 0 0 4.167v11.666A2.667 2.667 0 0 0 2.667 18.5h14.666A2.667 2.667 0 0 0 20 15.833V4.167A2.667 2.667 0 0 0 17.333 1.5zM2 4.167c0-.369.298-.667.667-.667h14.666c.369 0 .667.298.667.667v11.666a.667.667 0 0 1-.667.667H2.667A.667.667 0 0 1 2 15.833zM4 6.5a1 1 0 1 0 0-2 1 1 0 0 0 0 2m3 0a1 1 0 1 0 0-2 1 1 0 0 0 0 2m4-1a1 1 0 1 1-2 0 1 1 0 0 1 2 0" clip-rule="evenodd"/></svg>
